X:1
T:Title
%%score { ( 1 3 ) | 2 }
L:1/8
M:4/4
K:D
V:1 treble nm="Grand Piano"
V:3 treble 
V:2 bass 
V:1
 z4 z2[Q:1/4=106] [FA][EG] | F2 F2 F2 [FA]2 | [FA]2 [EG]4 [CE][DF] | [EG]2 [EG]2 [CA]2 [CE]2 | %4
[M:3/4] [DF]6 |[M:1/4] [DF][EG] |[M:4/4] [FA]2 [FA]2 [Fd]2 [FA]2 | [Ac]2 B4 B2 | %8
 A2 F2 [DF]2 [CE]2 |[M:3/4] D6 |[M:1/4] F2 |[M:4/4] [EG]2 [Gc]2 [Gc]2 [CGB]2 | [DFA]2 [Fd]4 [Fd]2 | %13
 c2 c2 d2 ^G2 |[M:3/4] [CEA]6 |[M:1/4] AG |[M:4/4] F2 F2 F2 [FA]2 | [FA]2 [EG]4 [CE][DF] | %18
 [EG]2 [FA]2 [GB]2 [Gc]2 |[M:3/4] [Fd]6 |] %20
V:2
 z4 z2 [D,A,][D,A,] | [D,A,D]2 [D,A,D]2 [D,A,D]2 [D,A,]2 | [A,,A,]2 [A,,A,]4 [A,,A,]2 | %3
 [A,,A,]2 [A,,A,]2 [A,,A,]2 [A,,A,]2 |[M:3/4] [D,A,]6 |[M:1/4] [D,A,][D,A,] | %6
[M:4/4] [D,D]2 [D,D]2 [D,A,]2 [D,D]2 | [G,D]2 [G,DG]4 [G,DG]2 | %8
 [A,DF]2 [A,D]2[K:bass] [A,,A,]2 [A,,G,]2 |[M:3/4] [D,F,]6 |[M:1/4] [D,A,D]2 | %11
[M:4/4] [A,,A,]2 [A,,A,]2 [A,,A,]2 A,,2 | D,2 [D,A,]4 [D,A,]2 | %13
 [E,A,E]2 [E,A,E]2 [E,^G,E]2 [E,DE]2 |[M:3/4] A,,6 |[M:1/4] A,,2 | %16
[M:4/4] [D,A,D]2 [D,A,D]2 [D,A,D]2 [D,A,]2 | [A,,A,]2 [A,,A,]4 [A,,A,]2 | %18
 [A,,A,]2 [A,,A,]2 [A,,A,]2 [A,,A,]2 |[M:3/4] [D,A,]6 |] %20
V:3
 x8 | x8 | x8 | x8 |[M:3/4] x6 |[M:1/4] x2 |[M:4/4] x8 | x8 | x8 |[M:3/4] x6 |[M:1/4] x2 | %11
[M:4/4] x8 | x8 | x8 |[M:3/4] x6 |[M:1/4] [A,C]2 |[M:4/4] x8 | x8 | x8 |[M:3/4] x6 |] %20

